X:1
T:Blanchard's -- Hornpipe
R:hornpipe
B:Cole's 1000 Fiddle Tunes
Z:Bob Puckette <bpuckette:msn.com> 2003-3-8
M:2/4
L:1/16
K:A
uE2|AGAc ecAc|dcdf ecAc|.d2(fd) .c2(ec)|BABc BdcB|
AGAc ecAc|dcdf ecAg|agaf edcB|A2A2A2:|
|:((3uefg)|aece fece|aece fece|agaf fedc|BABc BdcB|
AGAc ecAc|dcdf ecAg|agaf edcB|A2A2A2:|
